**kern	**silbe
*ICvox	*
=1	=1
*D:	*
*M3/4	*
*clefF4	*
2.r	.
=2	=2
2.r	.
=3	=3
2.r	.
=4	=4
4r	.
4r	.
8r	.
8AA	I
=5	=5
8F#	knew
8E	a
4F#	man,
8E	Bo-
[8F#	-jan
=6	=6
8F#]	_
8E	gles
4F#	and
8E	he
[8F#	danced
=7	=7
4F#]	_
8E	for
[8D	you
4D]	...
=8	=8
2.r	.
=9	=9
4r	.
4r	.
8r	.
8GG	in
=10	=10
4B	worn-
2A	-out
=11	=11
2.A	shoes
=12	=12
4r	.
4r	.
8r	.
8AA	The
=13	=13
8F#	sil-
8E	-ver
4F#	hair,
8E	a
[8F#	rag
=14	=14
8F#]	_
8E	ged
4F#	shirt
8E	and
[8F#	bag
=15	=15
8F#]	_
8E	gy
2D	pants,
=16	=16
2.r	.
=17	=17
4r	.
4r	.
8r	.
8GG	the
=18	=18
2B	old
4A	soft
=19	=19
2.A	shoe.
=20	=20
2.r	.
=21	=21
4r	.
4r	.
8r	.
8GG	He
=22	=22
4B	jumped
Bq	_
2c#	so
=23	=23
[2.A	high
=24	=24
4A]	,
4F#	jumped
8E	so
[8D	high
=25	=25
2.D]	,
=26	=26
2.r	.
=27	=27
4r	.
4r	.
8F#	then
8F#	he'd
=28	=28
4F#	light-
8E	-ly
8D	touch
8r	.
[8E	down
=29	=29
2.E]	...
=30	=30
2.r	.
=31	=31
2.r	.
=32	=32
2.r	.
=33	=33
2.r	.
=34	=34
8B	Mis-
8A	-ter
Bq	_
2c#	Bo-
=35	=35
8A	-jan
8F#	_
[2E	gles
=36	=36
4E]	...
4r	.
4r	.
=37	=37
2.r	.
=38	=38
8B	Mis-
8A	-ter
Bq	_
2c#	Bo-
=39	=39
8A	-jan
8F#	_
[2E	gles
=40	=40
4E]	...
4r	.
4r	.
=41	=41
2.r	.
=42	=42
8B	Mis-
8A	-ter
Bq	_
2c#	Bo-
=43	=43
8A	-jan
8F#	_
[2E	gles
=44	=44
4E]	...
4r	.
4r	.
=45	=45
[2.D	dance
=46	=46
4D]	_
4r	.
4r	.
=47	=47
2.r	.
=48	=48
4r	.
4r	.
8r	.
8AA	I
=49	=49
8F#	met
8E	him
4F#	in
8E	a
[8F#	cell
=50	=50
8F#]	_
8E	in
8F#	New
[8E	Or-
8E]	_
[8F#	-leans
=51	=51
4F#]	,
8E	I
[8D	was
4D]	...
=52	=52
2.r	.
=53	=53
2.r	.
=54	=54
Aq	_
2B	down
8A	and
[8A	out
=55	=55
2.A]	_
=56	=56
4r	.
4r	.
8r	.
8C#	He
=57	=57
8F#	looked
8E	to
4F#	me
8E	to
[8F#	be
=58	=58
2F#]	_
8E	the
[8F#	eyes
=59	=59
4F#]	_
8E	of
[8D	age
4D]	...
=60	=60
4r	.
4r	.
8GG	as
8GG	he
=61	=61
2B	spoke
8A	right
[8A	out
=62	=62
2.A]	_
=63	=63
4r	.
4r	.
8r	.
8C#	He
=64	=64
4B	talked
Bq	_
2c#	of
=65	=65
[2.A	life
=66	=66
4A]	,
4F#	talked
8E	of
[8D	life
=67	=67
2.D]	...
=68	=68
2.r	.
=69	=69
4r	.
4r	.
8r	.
8C#	He
=70	=70
4F#	laughed,
8F#	slapped
8E	his
8E	leg
8D	in-
=71	=71
2.E	-stead...
=72	=72
2.r	.
=73	=73
2.r	.
=74	=74
4r	.
4r	.
8r	.
8AA	he
=75	=75
8F#	said
8E	the
4F#	name
8E	Bo-
[8F#	-jan
=76	=76
8F#]	_
8E	gles
4F#	and
8E	he
[8F#	danced
=77	=77
4F#]	_
8E	a
[8D	lick
8D]	_
8r	...
=78	=78
2.r	.
=79	=79
2.r	.
=80	=80
2B	'Cross
8A	the
[8A	cell
=81	=81
2.A]	_
=82	=82
2.r	.
=83	=83
4r	.
4r	.
8r	.
8C#	He
=84	=84
8F#	grabbed
8E	his
4F#	pants
8E	for
8F#	bet-
=85	=85
8E	-ter
4F#	stance,
8E	ooh
8F#	,
8E	he
=86	=86
4F#	jumped
8E	so
[8D	high
4D]	...
=87	=87
2.r	.
=88	=88
4r	.
4r	.
8r	.
8GG	he
=89	=89
4B	clicked
2A	his
=90	=90
2.A	heels.
=91	=91
2.r	.
=92	=92
4r	.
4r	.
8r	.
8D	He
=93	=93
4B	let
4B	go
8g	a
[8A	laugh
=94	=94
2A_	_
8A]	,
8E	he
=95	=95
4F#	let
4F#	go
8E	a
[8D	laugh
=96	=96
2D]	...
=97	=97
2.r	.
=98	=98
8.r	.
8.r	.
16.r	.
8.F#	shook
[16.F#	back
=99	=99
16.F#]	_
8.F#	his
[16.F#	clothes
8F#]	_
8E	all
8D	a-
=100	=100
2.E	-round.
=101	=101
2.r	.
=102	=102
2.r	.
=103	=103
2.r	.
=104	=104
2.r	.
=105	=105
8B	Mis-
8A	-ter
Bq	_
2c#	Bo-
=106	=106
8A	-jan
8F#	_
[2E	gles
=107	=107
4E]	...
4r	.
4r	.
=108	=108
2.r	.
=109	=109
8B	Mis-
8A	-ter
Bq	_
2c#	Bo-
=110	=110
8A	-jan
8F#	_
2E	gles...
=111	=111
2.r	.
=112	=112
2.r	.
=113	=113
8B	Mis-
8A	-ter
Bq	_
2c#	Bo-
=114	=114
8A	-jan
8F#	_
[2E	gles
=115	=115
4E]	...
4r	.
4r	.
=116	=116
[2.D	dance
=117	=117
4D]	_
4r	.
4r	.
=118	=118
2.r	.
=119	=119
2.r	.
=120	=120
4r	.
4r	.
8r	.
8AA	He
=121	=121
4F#	danced
8E	for
4F#	those
8E	at
=122	=122
8F#	min-
8E	-strel
4F#	shows
8E	and
[8F#	coun
=123	=123
8F#]	_
8E	ty
2D	fairs...
=124	=124
2.r	.
=125	=125
4r	.
4r	.
8r	.
8GG	through-
=126	=126
2B	-out
8A	the
[8A	south
=127	=127
2.A]	_
=128	=128
4r	.
4r	.
8r	.
8AA	He
=129	=129
8F#	spoke
8E	with
4F#	tears
8E	of
8F#	fif
=130	=130
8r	.
8E	teen
4F#	years
8F#	how
8E	his
=131	=131
4F#	dog
8E	and
4.D	him...
=132	=132
2.r	.
=133	=133
4r	.
4r	.
8r	.
8GG	they
=134	=134
4B	tra-
4B	-velled
8A	a-
[8A	-bout
=135	=135
2.A]	...
=136	=136
2.r	.
=137	=137
4r	.
4r	.
8r	.
8GG	His
=138	=138
4B	dog
4B	up
8c#	and
[8A	died
=139	=139
2.A_	_
=140	=140
8A]	,
8F	he
8F#	up
[8E	and
4E]	_
=141	=141
2.D	died.
=142	=142
2.r	.
=143	=143
4r	.
8GG	Af-
8GG	-ter
8F#	twen-
8F#	-ty
=144	=144
4F#	years
4E	he
8D	still
[8E	grieves
=145	=145
2.E]	...
=146	=146
2.r	.
=147	=147
2.r	.
=148	=148
4r	.
4r	.
8r	.
8AA	He
=149	=149
8F#	said,
8E	\"I
4F#	dance
8F#	now
8E	at
=150	=150
8F#	ev-
8E	-'ry
4F#	chance
8E	and
[8F#	hon
=151	=151
8F#]	_
8E	ky
2D	tonk...
=152	=152
2.r	.
=153	=153
4r	.
4r	.
8r	.
8GG	for
=154	=154
2B	drinks
8A	and
[8A	tips
=155	=155
2A]	_
4r	.
=156	=156
4r	.
4r	.
8r	.
8BB	But
=157	=157
8F#	most
8E	the
4F#	time,
8E	I
[8F#	spend
=158	=158
8F#]	_
8E	be-
4F#	-hind
8E	these
[8F#	coun
=159	=159
8F#]	_
8E	ty
2.D	bars...
=160	=160
2.r	.
=161	=161
4r	.
8r	.
8GG	cuz
8B	I
8A	can
=162	=162
2B	drinks
8A	a
[8A	bit
=163	=163
2.A]	.\"
=164	=164
2.r	.
=165	=165
4r	.
4r	.
8r	.
8GG	He
=166	=166
8B	shook
8B	his
2c#	_
=167	=167
4A	head
2F#	,
=168	=168
8.F#	as
8.F#	he
8.F#	shook
8.E	his
=169	=169
2.D	head...
=170	=170
2.r	.
=171	=171
4r	.
8r	.
8GG	I
4F#	heard
=172	=172
8F#	some-
8D	-one
2D	ask,
=173	=173
[2.E	\"please
=174	=174
2E]	...\"
4r	.
=175	=175
2.r	.
=176	=176
2.r	.
=177	=177
2.r	.
=178	=178
8B	Mis-
8A	-ter
Bq	_
2c#	Bo-
=179	=179
8A	-jan
8F#	_
[2E	gles
=180	=180
4E]	...
4r	.
4r	.
=181	=181
2.r	.
=182	=182
8B	Mis-
8A	-ter
Bq	_
2c#	Bo-
=183	=183
8A	-jan
8F#	_
[2E	gles...
=184	=184
4E]	_
4r	.
4r	.
=185	=185
2.r	.
=186	=186
8B	Mis-
8A	-ter
Bq	_
2c#	Bo-
=187	=187
8A	-jan
8F#	_
[2E	gles
=188	=188
4E]	...
4r	.
4r	.
=189	=189
[2.D	dance
=190	=190
4D]	_
4r	.
4r	.
=191	=191
2.r	.
=192	=192
2.r	.
=193	=193
2.r	.
=194	=194
8B	Mis-
8A	-ter
Bq	_
2c#	Bo-
=195	=195
8A	-jan
8F#	_
2E	gles
*-	*-
!!!ENC: Nathaniel Condit-Schultz